src/assets/ember-icon.svg

<svg height="894.464" viewBox="0 0 596.724 894.464" width="596.724" xmlns="http://www.w3.org/2000/svg" xmlns:xlink="http://www.w3.org/1999/xlink"><filter id="a" filterUnits="userSpaceOnUse" height="894.464" width="596.724" x="0" y="0"><feOffset dy="3"/><feGaussianBlur result="blur" stdDeviation="49.5"/><feFlood flood-color="#fb4a25"/><feComposite in2="blur" operator="in"/><feComposite in="SourceGraphic"/></filter><linearGradient id="b" gradientUnits="objectBoundingBox" x1="-.309" x2="1.38" y1=".685" y2=".397"><stop offset="0"/><stop offset=".055" stop-color="#290007"/><stop offset=".147" stop-color="#690012"/><stop offset=".236" stop-color="#9f001b"/><stop offset=".318" stop-color="#c80022"/><stop offset=".392" stop-color="#e60027"/><stop offset=".455" stop-color="#f9002a"/><stop offset=".5" stop-color="#ff002b"/><stop offset="1" stop-color="#f7931e"/></linearGradient><radialGradient id="c" cx=".582" cy=".027" gradientTransform="matrix(.992 0 0 .626 .005 .01)" r="1.583" xlink:href="#b"/><radialGradient id="d" cx=".189" cy=".963" gradientTransform="matrix(2.882 0 0 1.042 -.356 -.041)" gradientUnits="objectBoundingBox" r=".87"><stop offset="0"/><stop offset=".5" stop-color="#ff002b"/><stop offset="1" stop-color="#f7931e"/></radialGradient><radialGradient id="e" cx="1.406" cy=".526" gradientTransform="matrix(3.012 0 0 1.042 -2.829 -.022)" r="1.179" xlink:href="#b"/><radialGradient id="f" cx=".6" cy=".854" gradientTransform="matrix(3.329 0 0 1.042 -1.396 -.036)" gradientUnits="objectBoundingBox" r="1.008"><stop offset="0" stop-color="#f7931e"/><stop offset="1" stop-color="#ff002b"/></radialGradient><radialGradient id="g" cx=".369" cy=".398" gradientTransform="matrix(2.882 0 0 1.042 -.695 -.018)" r=".782" xlink:href="#f"/><radialGradient id="h" cx="1.167" cy="-.015" gradientTransform="matrix(3.924 0 0 1.042 -3.413 0)" r=".806" xlink:href="#f"/><radialGradient id="i" cx=".391" cy=".555" gradientTransform="matrix(.784 0 0 1.042 .084 -.021)" r="1.928" xlink:href="#f"/><g filter="url(#a)" transform="translate(-.001 .002)"><path d="m1063.726 320.7-123.985 249.4-92.547 59.433 68.558 288.639 158.638-130.722 72.529-16.467z" fill="#ff002b" transform="translate(-698.69 -175.2)"/></g><path d="m588.632 322-113.932 414.888 206.585 95.56z" fill="url(#b)" transform="translate(-215.829 -222.368)"/><path d="m487.376 635.9-52.076 256.546 181.869-142.746 76.792-18.24z" fill="url(#c)" transform="translate(-228.505 -121.38)"/><path d="m482 736.888-30-132.436 143.935-282.452z" fill="url(#d)" transform="translate(-223.132 -222.368)"/><path d="m506.132 668.136-30-132.436-99.132 66.879 77.056 322.1z" fill="url(#e)" transform="translate(-247.261 -153.616)"/><path d="m575.667 322 92.653 510.449-153.32-70.977 104.813 8.328z" fill="url(#f)" transform="translate(-202.863 -222.368)"/><path d="m482 736.888-30-132.436 143.935-282.452-124.374 282.452z" fill="url(#g)" transform="translate(-223.132 -222.368)"/><path d="m476.129 535.7-19.429 49.565-46.525 40.313 43.881 299.105-77.056-322.104z" fill="url(#h)" transform="translate(-247.261 -153.616)"/><path d="m612.411 724.9-147.5 86.573-10.177-43.22-19.434 95.56z" fill="url(#i)" transform="translate(-228.505 -92.747)"/></svg>

<svg xmlns="http://www.w3.org/2000/svg" xmlns:xlink="http://www.w3.org/1999/xlink" width="596.724" height="894.464" viewBox="0 0 596.724 894.464">
  <defs>
    <filter id="Path_39" x="0" y="0" width="596.724" height="894.464" filterUnits="userSpaceOnUse">
      <feOffset dy="3" input="SourceAlpha"/>
      <feGaussianBlur stdDeviation="49.5" result="blur"/>
      <feFlood flood-color="#fb4a25"/>
      <feComposite operator="in" in2="blur"/>
      <feComposite in="SourceGraphic"/>
    </filter>
    <linearGradient id="linear-gradient" x1="-0.309" y1="0.685" x2="1.38" y2="0.397" gradientUnits="objectBoundingBox">
      <stop offset="0"/>
      <stop offset="0.055" stop-color="#290007"/>
      <stop offset="0.147" stop-color="#690012"/>
      <stop offset="0.236" stop-color="#9f001b"/>
      <stop offset="0.318" stop-color="#c80022"/>
      <stop offset="0.392" stop-color="#e60027"/>
      <stop offset="0.455" stop-color="#f9002a"/>
      <stop offset="0.5" stop-color="#ff002b"/>
      <stop offset="1" stop-color="#f7931e"/>
    </linearGradient>
    <radialGradient id="radial-gradient" cx="0.582" cy="0.027" r="1.583" gradientTransform="translate(0.005 0.01) scale(0.992 0.626)" xlink:href="#linear-gradient"/>
    <radialGradient id="radial-gradient-2" cx="0.189" cy="0.963" r="0.87" gradientTransform="translate(-0.356 -0.041) scale(2.882 1.042)" gradientUnits="objectBoundingBox">
      <stop offset="0"/>
      <stop offset="0.5" stop-color="#ff002b"/>
      <stop offset="1" stop-color="#f7931e"/>
    </radialGradient>
    <radialGradient id="radial-gradient-3" cx="1.406" cy="0.526" r="1.179" gradientTransform="translate(-2.829 -0.022) scale(3.012 1.042)" xlink:href="#linear-gradient"/>
    <radialGradient id="radial-gradient-4" cx="0.6" cy="0.854" r="1.008" gradientTransform="translate(-1.396 -0.036) scale(3.329 1.042)" gradientUnits="objectBoundingBox">
      <stop offset="0" stop-color="#f7931e"/>
      <stop offset="1" stop-color="#ff002b"/>
    </radialGradient>
    <radialGradient id="radial-gradient-5" cx="0.369" cy="0.398" r="0.782" gradientTransform="translate(-0.695 -0.018) scale(2.882 1.042)" xlink:href="#radial-gradient-4"/>
    <radialGradient id="radial-gradient-6" cx="1.167" cy="-0.015" r="0.806" gradientTransform="translate(-3.413 0) scale(3.924 1.042)" xlink:href="#radial-gradient-4"/>
    <radialGradient id="radial-gradient-7" cx="0.391" cy="0.555" r="1.928" gradientTransform="translate(0.084 -0.021) scale(0.784 1.042)" xlink:href="#radial-gradient-4"/>
  </defs>
  <g id="Group_26" data-name="Group 26" transform="translate(-703.261 -186.368)">
    <g transform="matrix(1, 0, 0, 1, 703.26, 186.37)" filter="url(#Path_39)">
      <path id="Path_39-2" data-name="Path 39" d="M1063.726,320.7,939.741,570.1l-92.547,59.433,68.558,288.639L1074.39,787.45l72.529-16.467Z" transform="translate(-698.69 -175.2)" fill="#ff002b"/>
    </g>
    <g id="Ember-Icon" transform="translate(833 286)">
      <g id="Group_25" data-name="Group 25" transform="translate(0)">
        <g id="Group_24" data-name="Group 24">
          <g id="Group_23" data-name="Group 23">
            <path id="Path_31" data-name="Path 31" d="M588.632,322,474.7,736.888l206.585,95.56Z" transform="translate(-345.568 -322)" fill="url(#linear-gradient)"/>
            <path id="Path_32" data-name="Path 32" d="M487.376,635.9,435.3,892.446,617.169,749.7l76.792-18.24Z" transform="translate(-358.244 -221.012)" fill="url(#radial-gradient)"/>
            <path id="Path_33" data-name="Path 33" d="M482,736.888,452,604.452,595.935,322Z" transform="translate(-352.871 -322)" fill="url(#radial-gradient-2)"/>
            <path id="Path_34" data-name="Path 34" d="M506.132,668.136l-30-132.436L377,602.579l77.056,322.1Z" transform="translate(-377 -253.248)" fill="url(#radial-gradient-3)"/>
            <path id="Path_35" data-name="Path 35" d="M575.667,322,668.32,832.449,515,761.472,619.813,769.8Z" transform="translate(-332.602 -322)" fill="url(#radial-gradient-4)"/>
            <path id="Path_36" data-name="Path 36" d="M482,736.888,452,604.452,595.935,322,471.561,604.452Z" transform="translate(-352.871 -322)" fill="url(#radial-gradient-5)"/>
          </g>
          <path id="Path_37" data-name="Path 37" d="M476.129,535.7,456.7,585.265l-46.525,40.313,43.881,299.105L377,602.579Z" transform="translate(-377 -253.248)" fill="url(#radial-gradient-6)"/>
        </g>
        <path id="Path_38" data-name="Path 38" d="M612.411,724.9l-147.5,86.573-10.177-43.22L435.3,863.813Z" transform="translate(-358.244 -192.379)" fill="url(#radial-gradient-7)"/>
      </g>
    </g>
  </g>
</svg>
